X:1
T: The King of the Clans
C:
R:Reel
Q: 232
K:G
M:4/4
L:1/8
B|d2 GA Bd ge|de dB AG EG|DG BG dG BG|ce ge dc Bc|
dG Bd gd Bd|gd bg ag ef|ga ((3gfe) dB ge|dB Ac BG Gf|
g2 bg ((3efg) df|gd BG AG EG|DG BG dG BG|ce ge dc Bd|
g2 bg ed ge|dB GB AG EG|DG Bd ge ce|dB Ac BG G:|
